X:1
T:Farewell to Fiddletree
C:T. S. Macdonald
L:1/8
M:3/4
K:Em
%%text Slow
ED |  E3 F A2 | B4 AF | G2 E2 E2 | E3 D ED | E3 F A2 | B4 AF | E2 e3 ^d | e3 B ef |
      g3 e dB | G4 cB | A3 G AE | C3 D ED | E3 F A2 | B4 AF | E2 e3 ^d | e4 |]

